X:25
T:B025-  Basse's/ Hunter's Career
S:via BBBM, for Christ Church Coll. MS
Q:1/4=120
L:1/4
M:4/4
K:C
cE/2F/2GA/2B/2|cB/2c/2de/2f/2|gc/2d/2 e/2f/2d|c2c2:|\
ed/2c/2B3/2c/2|dc/2B/2AB/2c/2|dG/2A/2 B/2c/2A|G4|\
ed/2c/2fe/2d/2|gf/2e/2ae/2f/2|gc/2d/2 e/2f/2 d|c2c2|]
